!!!COM: Gaspar van Weerbeke
!!!CDT: ~1450-~1517
!!!OPR: Missa octavi toni
!!!OTL: Gloria
!!!ONM: 2
!!!AGN: Mass
!!!SCT: Gas0204b
!!!SCA: Gas0204b
!!!voices: 4
**kern	**text	**kern	**text	**kern	**text	**kern	**text
*part4	*part4	*part3	*part3	*part2	*part2	*part1	*part1
*staff4	*staff4	*staff3	*staff3	*staff2	*staff2	*staff1	*staff1
*I"Bassus	*	*I"Tenor	*	*I"Altus	*	*I"Superius	*
*I'B	*	*I'T	*	*I'A	*	*I'S	*
*clefF4	*	*clefGv2	*	*clefGv2	*	*clefG2	*
*k[]	*	*k[]	*	*k[]	*	*k[]	*
*M3/2	*	*M3/2	*	*M3/2	*	*M3/2	*
*met(O)	*	*met(O)	*	*met(O)	*	*met(O)	*
=1	=1	=1	=1	=1	=1	=1	=1
1.G	Et	1.G	Et	1d	Et	(((((1g)))))	Et
.	.	.	.	4d	in	2g	in
.	.	.	.	4e	.	.	.
=2	=2	=2	=2	=2	=2	=2	=2
1F	in	1c	.	1f	ter-	1a	ter-
2G	ter-	2B	in	[2d	-ra	2g	-ra
=3	=3	=3	=3	=3	=3	=3	=3
4.D	-ra	2.A	ter-	4d]	.	4f	pax
.	.	.	.	2f	pax	2a	.
8E	.	.	.	.	.	.	.
4F	.	.	.	.	.	.	.
4G	.	4B	.	8eL	.	8gL	.
.	.	.	.	8dJ	.	8fJ	.
2A	pax	2c	-ra	4c	.	2e	.
.	.	.	.	[4A	.	.	.
=4	=4	=4	=4	=4	=4	=4	=4
4D	ho-	4d	pax	8AL]	.	4d	ho-
.	.	.	.	8BJ	.	.	.
2C	-mi-	2e	.	4.c	.	2g	.
.	.	.	.	8A	.	.	.
4D	-ni-	2d	ho-	2.A	ho-	4f	.
2AA	-bus,	.	.	.	.	2e	.
.	.	4c#i	.	.	.	.	.
!!LO:LB:g=original
=5	=5	=5	=5	=5	=5	=5	=5
4r	.	2d	-mi-	4D	.	4.f	-mi-
*	*edit	*	*	*	*	*	*
2D	ho-	.	.	4.F	-mi-	.	.
.	.	.	.	.	.	8e	.
.	.	4B	.	.	.	4d	.
.	.	.	.	8G	.	.	.
4C	-mi-	4c	.	4E	.	2g	-ni-
2D	-ni-	2A	-ni-	4D	.	.	.
.	.	.	.	[4d	-ni-	4f#i	.
=6	=6	=6	=6	=6	=6	=6	=6
1.GG	-bus	1.G	-bus	8dL]	.	1g	-bus
.	.	.	.	8c	.	.	.
.	.	.	.	8B	.	.	.
.	.	.	.	8AJ	.	.	.
.	.	.	.	4.B	.	.	.
.	.	.	.	8c	.	.	.
.	.	.	.	2d	-bus	2r	.
=7	=7	=7	=7	=7	=7	=7	=7
*lig	*	*	*	*	*	*	*
2C	bo-	2G	bo-	2c	bo-	2e	bo-
2E	-ne	2G	-ne	4B	-ne	2e	-ne
.	.	.	.	4c	.	.	.
*Xlig	*	*	*	*	*	*	*
2D	vo-	2F	vo-	4.d	vo-	2f	vo-
.	.	.	.	8c	.	.	.
=8	=8	=8	=8	=8	=8	=8	=8
4F	-lun-	4F	-lun-	4A	-lun-	4a	.
4E	.	2G	.	4B	.	4.g	-lun-
2C	.	.	.	2c	-ta-	.	.
.	.	.	.	.	.	8f	.
.	.	4A	.	.	.	4e	.
*lig	*	*	*	*	*	*	*
2GG	.	2B	.	2d	-tis,	4d	.
.	.	.	.	.	.	4g	-ta-
=9	=9	=9	=9	=9	=9	=9	=9
2AA	-ta-	2A	-ta-	4r	.	4f	.
*	*	*	*	*	*edit	*	*
.	.	.	.	2c	vo-	2e	.
*Xlig	*	*	*	*	*	*	*
4C	.	4G	.	.	.	.	.
4D	.	4F	.	2.A	-lun-	2d	.
2AA	-tis.	2E	.	.	.	.	.
.	.	.	.	.	.	4c#i	.
!!LO:LB:g=original
=10	=10	=10	=10	=10	=10	=10	=10
1.r	.	1D	-tis.	4.F	-ta-	2d	-tis.
.	.	.	.	8G	.	.	.
.	.	.	.	2A	.	2r	.
.	.	2A	Lau-	2D	-tis.	2f	Lau-
=11	=11	=11	=11	=11	=11	=11	=11
*	*Xedit	*	*	*	*Xedit	*	*
2D	Lau-	2.A	-da-	2d	Lau-	2.f	-da-
2.D	-da-	.	.	2.d	-da-	.	.
.	.	4A	-mus	.	.	4f	-mus
.	.	2A	te.	.	.	2f	te.
4D	-mus	.	.	4d	-mus	.	.
=12	=12	=12	=12	=12	=12	=12	=12
2D	te.	2r	.	2d	te.	2r	.
2r	.	2A	Be-	2c	Be-	2e	Be-
2r	.	4A	-ne-	2c	-ne-	[2e	-ne-
.	.	[4c	-di-	.	.	.	.
=13	=13	=13	=13	=13	=13	=13	=13
2C	Be-	4c]	.	4c	-di-	4e]	.
.	.	2c	-ci-	2e	.	2g	-di-
4C	-ne-	.	.	.	.	.	.
2C	-di-	4c	-mus	4.e	-ci-	2g	-ci-
.	.	2G	te.	.	.	.	.
.	.	.	.	8d	.	.	.
[4E	.	.	.	4c	.	4g	-mus
=14	=14	=14	=14	=14	=14	=14	=14
4E]	.	1.r	.	4B	-mus	2e	te,
4E	-ci-	.	.	4c	.	.	.
*	*	*	*	*	*	*	*edit
4.D	.	.	.	2d	te.	4.f	be-
8E	.	.	.	.	.	8e	.
4F	.	.	.	2r	.	8dL	.
.	.	.	.	.	.	8cJ	.
4D	.	.	.	.	.	[4d	-ne-
!!LO:PB:g=original
=15	=15	=15	=15	=15	=15	=15	=15
4G	.	1.r	.	1.r	.	4d]	.
2A	.	.	.	.	.	4c	.
.	.	.	.	.	.	4d	-di-
2G	-mus	.	.	.	.	4B	-ci-
.	.	.	.	.	.	2A	-mus
4F#i	.	.	.	.	.	.	.
=16	=16	=16	=16	=16	=16	=16	=16
1G	te.	2r	.	1.r	.	2G	te.
.	.	2d	Ad-	.	.	2r	.
*	*	*	*	*	*	*	*Xedit
2r	.	4d	-o-	.	.	2f	Ad-
.	.	[4d	-ra-	.	.	.	.
=17	=17	=17	=17	=17	=17	=17	=17
2D	Ad-	4d]	.	2A	Ad-	4f	-o-
.	.	4d	-mus	.	.	2f	-ra-
4D	-o-	2d	te.	4A	-o-	.	.
2D	-ra-	.	.	2A	-ra-	4f	-mus
.	.	2r	.	.	.	2f	te.
4D	-mus	.	.	4A	-mus	.	.
=18	=18	=18	=18	=18	=18	=18	=18
2D	te.	2d	Glo-	2A	te.	4r	.
.	.	.	.	.	.	4f	Glo-
2r	.	4B	-ri-	2d	Glo-	4g	-ri-
.	.	4B	-fi-	.	.	4g	-fi-
2F	Glo-	2A	-ca-	4c	-ri-	4a	-ca-
.	.	.	.	4A	.	4cc	.
!!LO:LB:g=original
=19	=19	=19	=19	=19	=19	=19	=19
4G	-ri-	4B	.	4G	-fi-	4b	.
4F	-fi-	2d	.	4A	.	2a	.
4D	-ca-	.	.	2.d	-ca-	.	.
4G	.	4B	.	.	.	2g	-mus
2D	-mus	2A	-mus	.	.	.	.
.	.	.	.	4d	-mus	4f#i	.
=20	=20	=20	=20	=20	=20	=20	=20
1GG	te.	1G	te.	4B	te.	1.g	te.
.	.	.	.	4c	.	.	.
.	.	.	.	2d	.	.	.
2r	.	2r	.	2G	.	.	.
=21	=21	=21	=21	=21	=21	=21	=21
2C	Gra-	4.E	Gra-	1.r	.	1.r	.
.	.	8F	.	.	.	.	.
4C	-ti-	4G	.	.	.	.	.
4C	-as	2A	.	.	.	.	.
2BB	a-	.	.	.	.	.	.
.	.	4G	-ti-	.	.	.	.
=22	=22	=22	=22	=22	=22	=22	=22
4.AA	-gi-	4F	-as	1.r	.	1.r	.
.	.	2A	a-	.	.	.	.
8BB	.	.	.	.	.	.	.
4C	.	.	.	.	.	.	.
2D	.	4F	.	.	.	.	.
.	.	2E	-gi-	.	.	.	.
4C#i	.	.	.	.	.	.	.
=23	=23	=23	=23	=23	=23	=23	=23
*lig	*	*	*	*	*	*	*
2D	-mus	4D	-mus	1.r	.	1.r	.
.	.	4.d	ti-	.	.	.	.
2F	.	.	.	.	.	.	.
.	.	8cL	.	.	.	.	.
.	.	8B	.	.	.	.	.
.	.	8AJ	.	.	.	.	.
*Xlig	*	*	*	*	*	*	*
[2E	ti-	4G	.	.	.	.	.
.	.	[4c	.	.	.	.	.
!!LO:LB:g=original
=24	=24	=24	=24	=24	=24	=24	=24
4E]	.	4c]	.	1.r	.	1.r	.
2D	.	2B	.	.	.	.	.
4C	.	2A	.	.	.	.	.
2BB	.	.	.	.	.	.	.
.	.	4G#i	.	.	.	.	.
=25	=25	=25	=25	=25	=25	=25	=25
1AA	-bi	2A	-bi	2c	Pro-	2a	Pro-
.	.	4r	.	2c	-pter	4a	-pter
.	.	2A	pro-	.	.	2cc	ma-
4C	pro-	.	.	4e	ma-	.	.
[4D	.	4A	-pter	[4f	.	[4a	.
=26	=26	=26	=26	=26	=26	=26	=26
4D]	.	4.A	ma-	4f]	.	4a]	.
4D	-pter	.	.	8eL	.	8gL	.
.	.	8B	.	8dJ	.	8fJ	.
2C	.	2c	-gnam	4e	.	2e	-gnam
.	.	.	.	4c	.	.	.
2D	ma-	4r	.	[2A	-gnam	2f	glo-
.	.	[4d	glo-	.	.	.	.
=27	=27	=27	=27	=27	=27	=27	=27
2AA	-gnam	4d]	.	2A]	.	2e	.
.	.	4c	.	.	.	.	.
2r	.	4B	.	4r	.	4d	.
.	.	4G	.	2d	glo-	4.g	-ri-
*lig	*	*	*	*	*	*	*
*	*edit	*	*	*	*	*	*
2GG	glo-	2B	-ri-	.	.	.	.
.	.	.	.	.	.	8fL	.
.	.	.	.	4G	-ri-	8e	.
.	.	.	.	.	.	8dJ	.
!!LO:LB:g=original
=28	=28	=28	=28	=28	=28	=28	=28
2AA	.	2A	-am	2.c	-am	4c	-am
.	.	.	.	.	.	2e	tu-
*Xlig	*	*	*	*	*	*	*
4C	-ri-	4G	tu-	.	.	.	.
4D	.	4F	.	2.A	.	2d	.
2AA	-am	2E	.	.	.	.	.
.	.	.	.	.	.	4c#i	.
=29	=29	=29	=29	=29	=29	=29	=29
2.A	tu-	1D	-am.	1F	tu-	2d	-am.
.	.	.	.	.	.	2r	.
2F	-am.	.	.	.	.	.	.
.	.	2r	.	2A	-am.	2d	Do-
4D	.	.	.	.	.	.	.
=30	=30	=30	=30	=30	=30	=30	=30
*	*Xedit	*	*	*	*	*	*
1D	Do-	1d	Do-	2r	.	4f	-mi-
.	.	.	.	.	.	4f	-ne
.	.	.	.	4r	.	4.f	De-
.	.	.	.	2f	Do-	.	.
.	.	.	.	.	.	8g	.
*col	*	*	*	*	*	*	*
4.F	-mi-	2d	-mi-	.	.	4.a	-us,
.	.	.	.	4f	-mi-	.	.
8G	.	.	.	.	.	8b	.
*Xcol	*	*	*	*	*	*	*
=31	=31	=31	=31	=31	=31	=31	=31
2.A	-ne	1c	-ne	1e	-ne	2.cc	Rex
8GL	.	.	.	.	.	4a	.
8FJ	.	.	.	.	.	.	.
2E	De-	2c	De-	2e	De-	2g	.
=32	=32	=32	=32	=32	=32	=32	=32
1D	-us,	1d	-us,	2A	-us,	4f	.
.	.	.	.	.	.	2a	ce-
.	.	.	.	4r	.	.	.
*	*	*	*	*	*	*col	*
.	.	.	.	4.d	Rex	4.b	-le-
2r	.	2G	Rex	.	.	.	.
.	.	.	.	8cL	.	8cc	.
*	*	*	*	*	*	*Xcol	*
.	.	.	.	8B	.	[4dd	.
.	.	.	.	8AJ	.	.	.
!!LO:PB:g=original
=33	=33	=33	=33	=33	=33	=33	=33
1.r	.	4B	ce-	4G	ce-	8ddL]	.
.	.	.	.	.	.	8ccJ	.
.	.	2c	.	2F	-le-	2a	.
.	.	4B	.	4G	.	2g	.
.	.	2A	-le-	2D	-stis,	.	.
.	.	.	.	.	.	4f#i	.
=34	=34	=34	=34	=34	=34	=34	=34
2GG	Rex	2G	-stis,	2d	De-	2g	-stis,
4AA	ce-	2r	.	4c	.	2r	.
2C	.	.	.	4A	.	.	.
.	.	2r	.	4G	-us	2r	.
4AA	.	.	.	4c	.	.	.
=35	=35	=35	=35	=35	=35	=35	=35
*	*	*	*	*	*edit	*	*
2BB	-le-	2G	De-	4d	Pa-	1.r	.
.	.	.	.	4B	.	.	.
1AA	-stis,	4A	.	4.c	.	.	.
.	.	2c	-us	.	.	.	.
.	.	.	.	8d	.	.	.
.	.	.	.	2e	-ter,	.	.
.	.	4A	.	.	.	.	.
=36	=36	=36	=36	=36	=36	=36	=36
2E	De-	2B	Pa-	2r	.	2g	De-
*	*	*	*	*lig	*	*	*
*	*	*	*	*	*Xedit	*	*
1F	-us	1A	-ter,	2c	Pa-	4a	.
.	.	.	.	.	.	2cc	-us
.	.	.	.	2f	.	.	.
.	.	.	.	.	.	8bL	.
.	.	.	.	.	.	8aJ	.
*	*	*	*	*Xlig	*	*	*
=37	=37	=37	=37	=37	=37	=37	=37
*	*	*	*	*	*	*	*edit
2G	Pa-	4r	.	4d	.	2b	Pa-
*	*	*	*edit	*	*	*	*
.	.	2d	Pa-	2g	.	.	.
2A	.	.	.	.	.	2a	-ter,
.	.	4c	.	4f#i	.	.	.
2G	.	4B	.	2g	-ter	4r	.
*	*	*	*	*	*	*	*Xedit
.	.	4G	.	.	.	[4dd	Pa-
!!LO:LB:g=original
=38	=38	=38	=38	=38	=38	=38	=38
2F	.	2A	-ter	2r	.	4dd]	.
.	.	.	.	.	.	4cc	.
*	*	*	*Xedit	*	*	*	*
4G	.	4G	om-	4d	om-	4b	.
4E	.	2c	-ni-	4e	.	4g	.
2F	-ter	.	.	4c	.	2a	-ter
.	.	8BL	.	4f	.	.	.
.	.	8AJ	.	.	.	.	.
=39	=39	=39	=39	=39	=39	=39	=39
2r	.	4B	.	4d	.	4g	om-
*	*	*lig	*	*	*	*	*
.	.	2A	.	4e	.	2cc	-ni-
2r	.	.	.	2f	-ni-	.	.
.	.	2d	-pot-	.	.	8bL	.
.	.	.	.	.	.	8aJ	.
4G	om-	.	.	4g	-pot-	4b	.
*	*	*Xlig	*	*	*	*lig	*
4A	.	4c	.	4e	.	[4a	.
=40	=40	=40	=40	=40	=40	=40	=40
*	*	*	*	*	*edit	*	*
4F	-ni-	2d	.	2f	-ens,	4a]	.
4D	-pot-	.	.	.	.	2dd	-pot-
2A	-ens,	2e	.	4r	.	.	.
*	*	*	*	*	*	*Xlig	*
.	.	.	.	4c	om-	4cc	.
2r	.	4d	.	4f	.	4b	.
.	.	4c	.	4e	.	[4a	.
=41	=41	=41	=41	=41	=41	=41	=41
*	*edit	*	*	*	*	*	*
4D	om-	2d	.	4f	.	8aL]	.
.	.	.	.	.	.	8g	.
4F	.	.	.	2d	-ni-	8f	.
.	.	.	.	.	.	8eJ	.
4G	-ni-	4B	.	.	.	4d	.
4E	.	4G	.	4c	.	2g	.
2D	-pto-	2A	.	2d	-pot-	.	.
.	.	.	.	.	.	4f#i	.
=42	=42	=42	=42	=42	=42	=42	=42
*	*	*	*	*	*Xedit	*	*
0GG	-ens.	0G	-ens.	0d	-ens.	0g	-ens.
!!LO:LB:g=original
=43||	=43||	=43||	=43||	=43||	=43||	=43||	=43||
*M2/2	*	*M2/2	*	*M2/2	*	*M2/2	*
*met(C|)	*	*met(C|)	*	*met(C|)	*	*met(C|)	*
*	*Xedit	*	*	*	*	*	*
1D	Do-	1A	Do-	1r	.	1r	.
=44	=44	=44	=44	=44	=44	=44	=44
1D	-mi-	2A	-mi-	1r	.	1r	.
.	.	2B	.	.	.	.	.
=45	=45	=45	=45	=45	=45	=45	=45
*lig	*	*	*	*	*	*	*
1F	-ne	2A	-ne	1r	.	1r	.
.	.	[2d	Fi-	.	.	.	.
=46	=46	=46	=46	=46	=46	=46	=46
1E	.	2d]	.	1r	.	1r	.
.	.	2c	-li	.	.	.	.
*Xlig	*	*	*	*	*	*	*
=47	=47	=47	=47	=47	=47	=47	=47
*	*	*lig	*	*	*	*	*
*	*	*	*edit	*	*	*	*
2F	Fi-	2d	u-	1r	.	1r	.
2D	.	2f	.	.	.	.	.
*	*	*Xlig	*	*	*	*	*
=48	=48	=48	=48	=48	=48	=48	=48
2C	.	2e	-ni-	1r	.	1r	.
2D	.	[2d	-ge-	.	.	.	.
=49	=49	=49	=49	=49	=49	=49	=49
1E	-li,	2d]	.	1r	.	1r	.
.	.	2c#i	-ni-	.	.	.	.
!!LO:LB:g=original
=50	=50	=50	=50	=50	=50	=50	=50
2r	.	1d	-te,	1r	.	1r	.
*	*edit	*	*	*	*	*	*
2D	Do-	.	.	.	.	.	.
=51	=51	=51	=51	=51	=51	=51	=51
4C	-mi-	1r	.	1r	.	1r	.
4C	-ne	.	.	.	.	.	.
4BB	Fi-	.	.	.	.	.	.
[4D	.	.	.	.	.	.	.
=52	=52	=52	=52	=52	=52	=52	=52
4D]	.	2d	Do-	1r	.	1r	.
4BB	.	.	.	.	.	.	.
2AA	.	4c	-mi-	.	.	.	.
.	.	4c	-ne	.	.	.	.
=53	=53	=53	=53	=53	=53	=53	=53
2GG	-li	4B	Fi-	1r	.	1r	.
.	.	2d	.	.	.	.	.
*	*Xedit	*	*	*	*	*	*
2G	u-	.	.	.	.	.	.
.	.	4B	.	.	.	.	.
=54	=54	=54	=54	=54	=54	=54	=54
*lig	*	*	*	*	*	*	*
2F	-ni-	2A	.	1r	.	1r	.
2G	.	2G	.	.	.	.	.
*Xlig	*	*	*	*	*	*	*
=55	=55	=55	=55	=55	=55	=55	=55
2.D	-ge-	2.F	.	1r	.	1r	.
4E	.	4G	.	.	.	.	.
=56	=56	=56	=56	=56	=56	=56	=56
4F	.	2A	-li	1r	.	1r	.
4G	.	.	.	.	.	.	.
*	*	*	*Xedit	*	*	*	*
2A	-ni-	2D	u-	.	.	.	.
!!LO:LB:g=original
=57	=57	=57	=57	=57	=57	=57	=57
2D	-te,	2.F	-ni-	1r	.	1r	.
*	*edit	*	*	*	*	*	*
2A	u-	.	.	.	.	.	.
.	.	8EL	.	.	.	.	.
.	.	8DJ	.	.	.	.	.
=58	=58	=58	=58	=58	=58	=58	=58
4G	.	4E	.	1r	.	1r	.
2F	-ni-	4D	.	.	.	.	.
.	.	2A	.	.	.	.	.
4D	.	.	.	.	.	.	.
=59	=59	=59	=59	=59	=59	=59	=59
4G	-ge-	4B-i	.	1r	.	1r	.
4F	.	4.A	-ge-	.	.	.	.
2D	.	.	.	.	.	.	.
.	.	8G	.	.	.	.	.
.	.	[4A	.	.	.	.	.
=60	=60	=60	=60	=60	=60	=60	=60
4AA	.	4A]	.	1r	.	1r	.
2D	-ni-	4F	.	.	.	.	.
.	.	2E	-ni-	.	.	.	.
4C#i	.	.	.	.	.	.	.
=61	=61	=61	=61	=61	=61	=61	=61
1D	-te,	2D	-te,	1r	.	1r	.
.	.	4r	.	.	.	.	.
*	*	*	*edit	*	*	*	*
.	.	[4d	u-	.	.	.	.
=62	=62	=62	=62	=62	=62	=62	=62
2F	u-	8dL]	.	1r	.	1r	.
.	.	8c	.	.	.	.	.
.	.	8B	.	.	.	.	.
.	.	8AJ	.	.	.	.	.
2E	-ni-	4G	.	.	.	.	.
.	.	4c	-ni-	.	.	.	.
=63	=63	=63	=63	=63	=63	=63	=63
4D	-ge-	4B	.	1r	.	1r	.
4C	.	2A	-ge-	.	.	.	.
2BB	-ni-	.	.	.	.	.	.
.	.	4G#i	-ni-	.	.	.	.
=64	=64	=64	=64	=64	=64	=64	=64
0AA	-te	0A	-te	0r	.	0r	.
!!LO:PB:g=original
=65||	=65||	=65||	=65||	=65||	=65||	=65||	=65||
*	*Xedit	*	*Xedit	*	*	*	*
1AA;	Je-	1A;	Je-	1c;	Je-	1e;	Je-
=66	=66	=66	=66	=66	=66	=66	=66
1D;	-su	1A;	-su	1d;	-su	1f;	-su
=67	=67	=67	=67	=67	=67	=67	=67
[1C;	Chri-	[1c;	Chri-	[1e;	Chri-	[1g;	Chri-
=68	=68	=68	=68	=68	=68	=68	=68
1C]	.	1c]	.	1e]	.	1g]	.
=69	=69	=69	=69	=69	=69	=69	=69
0D;	-ste.	0A;	-ste.	0d;	-ste.	0f;	-ste.
=70||	=70||	=70||	=70||	=70||	=70||	=70||	=70||
*M2/2	*	*M2/2	*	*M2/2	*	*M2/2	*
*met(C|)	*	*met(C|)	*	*met(C|)	*	*met(C|)	*
1r	.	1D	Do-	1A	Do-	1f	Do-
=71	=71	=71	=71	=71	=71	=71	=71
1r	.	2D	-mi-	2A	-mi-	2f	-mi-
.	.	2D	-ne	2A	-ne	2f	-ne
=72	=72	=72	=72	=72	=72	=72	=72
*	*	*	*	*	*	*lig	*
1r	.	1G	De-	2B	De-	2g	De-
.	.	.	.	2G	.	2b	.
*	*	*	*	*	*	*Xlig	*
!!LO:LB:g=original
=73	=73	=73	=73	=73	=73	=73	=73
*	*	*lig	*	*lig	*	*lig	*
1r	.	2D	-us,	2d	.	2a	-us,
.	.	2C	.	2e	.	2cc	.
*	*	*Xlig	*	*Xlig	*	*Xlig	*
=74	=74	=74	=74	=74	=74	=74	=74
1r	.	4G	A-	2d	.	4b	A-
.	.	2F	.	.	.	2a	-gnus
.	.	.	.	4c	.	.	.
.	.	4G	.	[4B	.	[4g	De-
=75	=75	=75	=75	=75	=75	=75	=75
1r	.	2E	-gnus	4B]	.	4g]	.
.	.	.	.	8AL	.	8f#iL	.
.	.	.	.	8GJ	.	8eJ	.
.	.	2D	De-	2A	.	2f#i	.
=76	=76	=76	=76	=76	=76	=76	=76
[1GG	A-	1G	-i,	1G	-us,	1g	-i,
=77	=77	=77	=77	=77	=77	=77	=77
2GG]	.	2B	Fi-	2d	A-	2g	Fi-
2GG	-gnus	2B	-li-	2d	-gnus	2g	-li-
=78	=78	=78	=78	=78	=78	=78	=78
[1D	De-	[1A	-us	[1d	De-	[1f	-us
=79	=79	=79	=79	=79	=79	=79	=79
1D]	.	1A]	.	1d]	.	1f]	.
!!LO:LB:g=original
=80	=80	=80	=80	=80	=80	=80	=80
1C	-i,	[1c	Pa-	1G	-i,	2.e	Pa-
.	.	.	.	.	.	4f	.
=81	=81	=81	=81	=81	=81	=81	=81
4E	Fi-	2c]	.	2r	.	4g	.
4F	.	.	.	.	.	2a	.
2G	.	2B	.	4.d	Fi-	.	.
.	.	.	.	.	.	4g	.
.	.	.	.	8e	.	.	.
=82	=82	=82	=82	=82	=82	=82	=82
2F	.	2A	.	2f	.	2cc	.
[2G	.	[2d	.	4d	.	[2b	.
.	.	.	.	[4g	.	.	.
=83	=83	=83	=83	=83	=83	=83	=83
4G]	.	4d]	.	8gL]	.	4b]	.
.	.	.	.	8f	.	.	.
4A	.	4c	.	8e	.	4a	.
.	.	.	.	8dJ	.	.	.
2F	-li-	2A	.	4c	.	[2a	.
.	.	.	.	4d	-li-	.	.
=84	=84	=84	=84	=84	=84	=84	=84
*	*	*lig	*	*	*	*	*
1E	-us	1B	.	2e	-us	2a]	.
.	.	.	.	2r	.	2g#i	.
=85	=85	=85	=85	=85	=85	=85	=85
2.F	Pa-	1A	-tris.	2c	Pa-	1a	-tris.
.	.	.	.	2f	.	.	.
4E	.	.	.	.	.	.	.
*	*	*Xlig	*	*	*	*	*
=86	=86	=86	=86	=86	=86	=86	=86
2C	.	2r	.	2e	.	1r	.
2F	.	2A	Qui	2d	-tris.	.	.
!!LO:LB:g=original
=87	=87	=87	=87	=87	=87	=87	=87
2E	.	4B	tol-	4r	.	1r	.
.	.	4c	.	4G	Qui	.	.
4D	.	2d	-lis	4A	.	.	.
[4G	.	.	.	[4B	tol-	.	.
=88	=88	=88	=88	=88	=88	=88	=88
4G]	.	4G	pec-	4B]	.	1r	.
4E	.	2c	.	2G	.	.	.
2D	-tris.	.	.	.	.	.	.
.	.	4B	.	4F	.	.	.
=89	=89	=89	=89	=89	=89	=89	=89
2C	Qui	2c	-ca-	2G	-lis	1e	Qui
2C	tol-	2c	-ta	2G	pec-	.	.
=90	=90	=90	=90	=90	=90	=90	=90
2C	-lis	2c	mun-	2G	-ca-	2e	tol-
[2C	pec-	[2G	-di,	4G	-ta	[2e	-lis
.	.	.	.	[4c	mun-	.	.
=91	=91	=91	=91	=91	=91	=91	=91
2C]	.	2G]	.	4c]	.	2e]	.
.	.	.	.	8BL	.	.	.
.	.	.	.	8AJ	.	.	.
*	*	*	*edit	*	*	*	*
2C	-ca-	2c	qui	2G	-di,	2e	pec-
=92	=92	=92	=92	=92	=92	=92	=92
*	*	*	*	*	*edit	*	*
2E	-ta	2B	tol-	2G	pec-	2g	-ca-
*	*	*	*	*lig	*	*	*
2E	mun-	2c	-lis	2G	-ca-	2g	-ta
=93	=93	=93	=93	=93	=93	=93	=93
2D	-di,	2.d	pec-	2A	.	2.f	mun-
*	*	*	*	*Xlig	*	*	*
2r	.	.	.	2D	-ta	.	.
.	.	4c	.	.	.	8eL	.
.	.	.	.	.	.	8dJ	.
!!LO:PB:g=original
=94	=94	=94	=94	=94	=94	=94	=94
*	*edit	*	*	*	*	*	*
4D	mun-	4A	.	4d	mun-	4f	.
4E	.	2G	-ca-	4B	.	2e	.
4C	.	.	.	4c	.	.	.
4D	.	4F	-ta	[4A	.	[4d	.
=95	=95	=95	=95	=95	=95	=95	=95
2AA	-di,	2E	mun-	4A]	.	4d]	.
.	.	.	.	4A	-di,	4c#i	.
*	*	*	*	*	*Xedit	*	*
2r	.	2D	-di,	2A	mi-	2d	-di,
=96	=96	=96	=96	=96	=96	=96	=96
*	*Xedit	*	*Xedit	*	*	*	*
2D	mi-	2F	mi-	2A	-se-	2a	mi-
2D	-se-	2F	-se-	2A	-re-	2a	-se-
=97	=97	=97	=97	=97	=97	=97	=97
2D	-re-	2F	-re-	2d	-re	2a	-re-
2D	-re	2F	-re	2d	no-	2a	-re
=98	=98	=98	=98	=98	=98	=98	=98
1GG	no-	1G	no-	1d	-bis.	1b-j	no-
=99	=99	=99	=99	=99	=99	=99	=99
*lig	*	*lig	*	*	*	*	*
2D	-bis,	2A	-bis,	1r	.	1a	-bis.
2C	.	2c	.	.	.	.	.
*Xlig	*	*Xlig	*	*	*	*	*
=100	=100	=100	=100	=100	=100	=100	=100
*	*edit	*	*edit	*	*	*	*
2E	mi-	2B	mi-	1r	.	1r	.
2F	-se-	4A	.	.	.	.	.
*	*	*col	*	*	*	*	*
.	.	[4d	-se-	.	.	.	.
!!LO:LB:g=original
=101	=101	=101	=101	=101	=101	=101	=101
4D	.	8dL]	.	1r	.	1r	.
.	.	8cJ	.	.	.	.	.
*	*	*Xcol	*	*	*	*	*
2G	-re-	2B	.	.	.	.	.
4F	.	[4A	-re-	.	.	.	.
=102	=102	=102	=102	=102	=102	=102	=102
2E	.	4A]	.	1r	.	1r	.
.	.	4G	.	.	.	.	.
2D	.	4F	.	.	.	.	.
.	.	[4A	-re	.	.	.	.
=103	=103	=103	=103	=103	=103	=103	=103
4BB	-re	4A]	.	1r	.	1r	.
4C	.	2G	no-	.	.	.	.
2AA	no-	.	.	.	.	.	.
.	.	4F#i	.	.	.	.	.
=104	=104	=104	=104	=104	=104	=104	=104
*	*	*lig	*	*	*	*	*
1GG	-bis.	1G	-bis.	1B	Qui	[1g	Qui
=105	=105	=105	=105	=105	=105	=105	=105
1r	.	1B	.	2G	tol-	1g]	.
.	.	.	.	2G	-lis	.	.
*	*	*Xlig	*	*	*	*	*
=106	=106	=106	=106	=106	=106	=106	=106
*	*Xedit	*	*Xedit	*	*	*	*
2GG	Qui	2B	Qui	2d	pec-	2g	tol-
2GG	tol-	2B	tol-	2d	-ca-	2g	-lis
=107	=107	=107	=107	=107	=107	=107	=107
*	*	*	*	*lig	*	*	*
2AA	-lis	1A	-lis	1c	-ta	2e	pec-
2AA	pec-	.	.	.	.	2f	.
!!LO:LB:g=original
=108	=108	=108	=108	=108	=108	=108	=108
1GG	-ca-	2.B	pec-	1d	.	2.g	-ca-
.	.	4G	.	.	.	4e	.
*	*	*	*	*Xlig	*	*	*
=109	=109	=109	=109	=109	=109	=109	=109
[1D	-ta	2A	-ca-	1r	.	[1f	-ta
.	.	2D	-ta	.	.	.	.
=110	=110	=110	=110	=110	=110	=110	=110
1D]	.	2.F	mun-	1d	mun-	1f]	.
.	.	4G	.	.	.	.	.
=111	=111	=111	=111	=111	=111	=111	=111
*	*	*	*	*lig	*	*	*
1D	mun-	[1A	-di,	1d	-di,	1f	mun-
=112	=112	=112	=112	=112	=112	=112	=112
[1AA	-di,	1A]	.	1c	.	[1e	-di,
*	*	*	*	*Xlig	*	*	*
=113	=113	=113	=113	=113	=113	=113	=113
2AA]	.	2.E	sus-	2r	.	1e]	.
2C	.	.	.	2A	sus-	.	.
.	.	4F	.	.	.	.	.
=114	=114	=114	=114	=114	=114	=114	=114
1BB	.	2G	.	2B	.	[1d	sus-
.	.	2G	-ci-	2G	-ci-	.	.
!!LO:LB:g=original
=115	=115	=115	=115	=115	=115	=115	=115
2BB	sus-	2G	-pe	[1D	-pe	2d]	.
2BB	-ci-	2G	de-	.	.	2d	-ci-
=116	=116	=116	=116	=116	=116	=116	=116
*	*	*lig	*	*	*	*	*
1BB	-pe	1G	-pre-	1D]	.	1d	-pe
=117	=117	=117	=117	=117	=117	=117	=117
1AA	de-	1A	.	2r	.	2r	.
.	.	.	.	2E	de-	2c	de-
*	*	*Xlig	*	*	*	*	*
=118	=118	=118	=118	=118	=118	=118	=118
2BB	-pre-	1G	-ca-	2D	-pre-	2d	-pre-
2BB	-ca-	.	.	2D	-ca-	2d	-ca-
=119	=119	=119	=119	=119	=119	=119	=119
2AA	-ti-	2A	-ti-	2E	-ti-	2c	-ti-
[2D	-o-	2F	.	2D	.	[2f	-o-
=120	=120	=120	=120	=120	=120	=120	=120
2D]	.	2D	.	2F	-o-	2f]	.
2BB	.	[2G	-o-	2D	.	2g	.
=121	=121	=121	=121	=121	=121	=121	=121
1AA	.	2G]	.	1C	.	1a	-nem
.	.	2F#i	.	.	.	.	.
!!LO:PB:g=original
=122	=122	=122	=122	=122	=122	=122	=122
[1GG	-nem	[1G	-nem	1D	-nem	[1b	no-
=123	=123	=123	=123	=123	=123	=123	=123
1GG]	.	1G]	.	[1d	no-	1b]	.
=124	=124	=124	=124	=124	=124	=124	=124
*	*	*lig	*	*	*	*	*
2D	no-	2F	no-	2d]	.	2a	.
2E	.	2G	.	2c	.	[2g	.
=125	=125	=125	=125	=125	=125	=125	=125
1D	.	1A	.	1d	.	2g]	.
.	.	.	.	.	.	2f#i	.
*	*	*Xlig	*	*	*	*	*
=126	=126	=126	=126	=126	=126	=126	=126
1GG	-stram.	1G	-stram.	1B	-stram.	1g	-stram.
=127	=127	=127	=127	=127	=127	=127	=127
1r	.	1r	.	1A	Qui	2r	.
.	.	.	.	.	.	[2e	Qui
=128	=128	=128	=128	=128	=128	=128	=128
1r	.	1r	.	2c	se-	2e]	.
.	.	.	.	2B	-des	2g	se-
=129	=129	=129	=129	=129	=129	=129	=129
1r	.	1r	.	2A	ad	2f	-des
.	.	.	.	2c	dex-	2e	ad
!!LO:LB:g=original
=130	=130	=130	=130	=130	=130	=130	=130
1r	.	1r	.	2B	-te-	2g	dex-
.	.	.	.	2A	-ram,	2f	-te-
=131	=131	=131	=131	=131	=131	=131	=131
1r	.	1r	.	2r	.	2e	-ram,
*	*	*	*	*	*edit	*	*
.	.	.	.	2d	ad	2r	.
=132	=132	=132	=132	=132	=132	=132	=132
*	*	*	*	*	*	*	*edit
1r	.	1r	.	2f	dex-	2a	ad
.	.	.	.	2e	-te-	2cc	dex-
=133	=133	=133	=133	=133	=133	=133	=133
1r	.	1r	.	4d	-ram	2b	-te-
*	*	*	*	*	*Xedit	*	*
.	.	.	.	2g	Pa-	.	.
.	.	.	.	.	.	2a	-ram
.	.	.	.	4f	.	.	.
=134	=134	=134	=134	=134	=134	=134	=134
1r	.	1r	.	4e	.	4g	.
*	*	*	*	*	*	*	*Xedit
.	.	.	.	4c	.	2cc	Pa-
.	.	.	.	2d	.	.	.
.	.	.	.	.	.	4b	.
=135	=135	=135	=135	=135	=135	=135	=135
1r	.	1r	.	1c	-tris,	1cc	-tris,
=136	=136	=136	=136	=136	=136	=136	=136
2C	Mi-	2c	Mi-	1r	.	2g	mi-
2C	-se-	2c	-se-	.	.	2g	-se-
!!LO:LB:g=original
=137	=137	=137	=137	=137	=137	=137	=137
2E	-re-	2c	-re-	2G	mi-	2g	-re-
2E	-re	2c	-re	2G	-se-	2e	-re
=138	=138	=138	=138	=138	=138	=138	=138
2D	no-	2d	no-	2A	-re-	2f	no-
[2C	.	[2e	.	[2c	-re	[2g	.
=139	=139	=139	=139	=139	=139	=139	=139
2C]	.	4e]	.	2c]	.	2g]	.
.	.	4d	.	.	.	.	.
2D	.	[2d	.	2A	no-	2f	.
=140	=140	=140	=140	=140	=140	=140	=140
1AA	-bis.	2d]	.	1A	-bis.	1e	-bis.
.	.	2c#i	.	.	.	.	.
=141	=141	=141	=141	=141	=141	=141	=141
2r	.	1d	-bis.	1r	.	1r	.
2D	Quo-	.	.	.	.	.	.
=142	=142	=142	=142	=142	=142	=142	=142
*	*	*lig	*	*	*	*	*
2F	.	2A	Quo-	1r	.	1r	.
2E	-ni-	2c	.	.	.	.	.
*	*	*Xlig	*	*	*	*	*
=143	=143	=143	=143	=143	=143	=143	=143
2D	-am	2B	-ni-	1r	.	1r	.
2F	tu	4A	-am	.	.	.	.
.	.	[4d	tu	.	.	.	.
!!LO:LB:g=original
=144	=144	=144	=144	=144	=144	=144	=144
2E	so-	4d]	.	1r	.	1r	.
.	.	4c	.	.	.	.	.
4D	-lus	2B	so-	.	.	.	.
[4G	san-	.	.	.	.	.	.
=145	=145	=145	=145	=145	=145	=145	=145
4G]	.	2A	-lus	1r	.	1r	.
4F	.	.	.	.	.	.	.
4E	.	4G	.	.	.	.	.
[4A	.	[4c	san-	.	.	.	.
=146	=146	=146	=146	=146	=146	=146	=146
4A]	.	4c]	.	1r	.	1r	.
2G	.	4B	.	.	.	.	.
.	.	2A	.	.	.	.	.
4F#i	.	.	.	.	.	.	.
=147	=147	=147	=147	=147	=147	=147	=147
1G	-ctus.	1G	-ctus.	1d	Tu	1r	.
=148	=148	=148	=148	=148	=148	=148	=148
1D	Tu	1r	.	1d	so-	1f	Tu
=149	=149	=149	=149	=149	=149	=149	=149
2D	so-	2d	Tu	[1A	-lus	2f	so-
2D	-lus	[2d	so-	.	.	2f	-lus
=150	=150	=150	=150	=150	=150	=150	=150
2F	Do-	4d]	.	1A]	.	1a	Do-
.	.	4c	.	.	.	.	.
2F	-mi-	2A	.	.	.	.	.
!!LO:PB:g=original
=151	=151	=151	=151	=151	=151	=151	=151
2G	.	1G	-lus	2d	Do-	2.b	.
2E	.	.	.	2e	.	.	.
.	.	.	.	.	.	4g	.
=152	=152	=152	=152	=152	=152	=152	=152
*lig	*	*	*	*lig	*	*	*
2F	.	2A	Do-	2c	.	2cc	.
2G	.	2G	.	2g	.	[2b	-mi-
*Xlig	*	*	*	*Xlig	*	*	*
=153	=153	=153	=153	=153	=153	=153	=153
2A	.	1c	-mi-	2e	-mi-	4b]	.
.	.	.	.	.	.	4a	.
2F	.	.	.	2f	.	[2a	-nus.
=154	=154	=154	=154	=154	=154	=154	=154
1G	-nus.	1B	-nus.	1d	-nus.	2a]	.
.	.	.	.	.	.	2dd	Tu
=155	=155	=155	=155	=155	=155	=155	=155
*	*	*	*edit	*	*	*	*
1r	.	2A	Tu	4e	Tu	4cc	.
.	.	.	.	4.c	.	2a	so-
.	.	4c	.	.	.	.	.
.	.	.	.	8B	.	.	.
.	.	[4d	.	[4G	.	[4b-i	.
=156	=156	=156	=156	=156	=156	=156	=156
2r	.	4d]	.	8GL]	.	4b-]	.
.	.	.	.	8FJ	.	.	.
.	.	4c	.	4A	.	2a	.
2G	Tu	2B-i	so-	2d	so-	.	.
.	.	.	.	.	.	4g	.
=157	=157	=157	=157	=157	=157	=157	=157
1D	so-	1A	-lus	1d	-lus	1a	-lus
!!LO:LB:g=original
=158	=158	=158	=158	=158	=158	=158	=158
*	*	*	*	*lig	*	*	*
2F	-lus	1r	.	2A	Al-	1r	.
2G	Al-	.	.	2B	.	.	.
*	*	*	*	*Xlig	*	*	*
=159	=159	=159	=159	=159	=159	=159	=159
1A	-tis-	1r	.	4.c	-tis-	1r	.
.	.	.	.	8d	.	.	.
.	.	.	.	4e	.	.	.
.	.	.	.	[4f	.	.	.
=160	=160	=160	=160	=160	=160	=160	=160
2F	.	1r	.	4f]	.	1r	.
.	.	.	.	8eL	.	.	.
.	.	.	.	8dJ	.	.	.
2E	.	.	.	4.c	.	.	.
.	.	.	.	8d	.	.	.
=161	=161	=161	=161	=161	=161	=161	=161
4D	.	1r	.	4f	.	1r	.
4C	.	.	.	2e	.	.	.
2D	.	.	.	.	.	.	.
.	.	.	.	[4d	-si-	.	.
=162	=162	=162	=162	=162	=162	=162	=162
2E	-si-	1r	.	4d]	.	1r	.
.	.	.	.	4c#i	.	.	.
2D	-mus,	.	.	2d	-mus,	.	.
=163	=163	=163	=163	=163	=163	=163	=163
*	*	*	*	*lig	*	*	*
*	*	*	*Xedit	*	*edit	*	*
1r	.	1d	Al-	2D	Al-	2.a	Al-
.	.	.	.	2F	-tis-	.	.
.	.	.	.	.	.	4b	.
*	*	*	*	*Xlig	*	*	*
=164	=164	=164	=164	=164	=164	=164	=164
*	*edit	*	*	*	*	*	*
1C	Al-	1e	-tis-	2G	-si-	2.cc	.
.	.	.	.	2E	-mus,	.	.
.	.	.	.	.	.	4b	.
=165	=165	=165	=165	=165	=165	=165	=165
*lig	*	*	*	*	*	*	*
2D	-tis-	2d	-si-	2r	.	4a	.
.	.	.	.	.	.	8gL	.
.	.	.	.	.	.	8fJ	.
2E	-si-	2c	.	2e	Al-	2g	.
*Xlig	*	*	*	*	*	*	*
!!LO:LB:g=original
=166	=166	=166	=166	=166	=166	=166	=166
2D	-mus,	2d	-mus,	2f	-tis-	2f	.
*	*	*	*edit	*	*	*	*
2r	.	2G	Al-	2g	.	2b-i	-tis-
=167	=167	=167	=167	=167	=167	=167	=167
*lig	*	*	*	*	*	*	*
2F	Al-	2c	-tis-	2f	.	2a	.
2G	-tis-	2B	.	[2d	-si-	[2g	-si-
*Xlig	*	*	*	*	*	*	*
=168	=168	=168	=168	=168	=168	=168	=168
*lig	*	*	*	*	*	*	*
1D	-si-	1A	-si-	4d]	.	2g]	.
.	.	.	.	4c	.	.	.
.	.	.	.	2d	.	2f#i	.
=169	=169	=169	=169	=169	=169	=169	=169
0E;	-mus,	0G;	-mus,	0B;	-mus,	0g;	-mus,
*Xlig	*	*	*	*	*	*	*
=170||	=170||	=170||	=170||	=170||	=170||	=170||	=170||
*	*Xedit	*	*Xedit	*	*Xedit	*	*
1C;	Je-	1G;	Je-	1c;	Je-	1e;	Je-
=171	=171	=171	=171	=171	=171	=171	=171
1D;	-su	1F;	-su	1A;	-su	1f;	-su
=172	=172	=172	=172	=172	=172	=172	=172
1GG;	Chri-	1G;	Chri-	1B;	Chri-	1d;	Chri-
=173	=173	=173	=173	=173	=173	=173	=173
0C;	-ste.	0G;	-ste.	0c;	-ste.	0e;	-ste.
!!LO:LB:g=original
=174||	=174||	=174||	=174||	=174||	=174||	=174||	=174||
*M3/2	*	*M3/2	*	*M3/2	*	*M3/2	*
*met(O)	*	*met(O)	*	*met(O)	*	*met(O)	*
!!LO:TX:a:t=[C |3]
*	*	*	*	*col	*	*	*
1.r	.	1.r	.	1G	Cum	1.r	.
.	.	.	.	[2G	San-	.	.
=175	=175	=175	=175	=175	=175	=175	=175
1.r	.	1.r	.	2G]	.	1.r	.
.	.	.	.	1A	-cto	.	.
*	*	*	*	*Xcol	*	*	*
=176	=176	=176	=176	=176	=176	=176	=176
*	*	*	*	*	*	*col	*
1.r	.	1.r	.	1B	Spi-	1g	Cum
.	.	.	.	2B	-ri-	[2g	San-
=177	=177	=177	=177	=177	=177	=177	=177
1.r	.	1.r	.	1c	-tu,	2g]	.
.	.	.	.	.	.	1a	-cto
*	*	*	*	*	*	*Xcol	*
.	.	.	.	2A	.	.	.
=178	=178	=178	=178	=178	=178	=178	=178
1.r	.	1.r	.	1.G	.	1b	Spi-
.	.	.	.	.	.	2b	-ri-
=179	=179	=179	=179	=179	=179	=179	=179
*	*	*	*	*	*edit	*	*
*	*	*	*	*col	*	*	*
1.r	.	1.r	.	2A	Spi-	2.cc	-tu,
.	.	.	.	1F	-ri-	.	.
*	*	*	*	*Xcol	*	*	*
.	.	.	.	.	.	4b	.
.	.	.	.	.	.	2a	.
=180	=180	=180	=180	=180	=180	=180	=180
*col	*	*	*	*	*	*	*
1GG	Cum	1.r	.	1G	-tu,	1g	.
*	*	*	*	*	*	*	*edit
[2GG	San-	.	.	2r	.	2d	cum
!!LO:PB:g=original
=181	=181	=181	=181	=181	=181	=181	=181
2GG]	.	1.r	.	1.r	.	2g	San-
1AA	-cto	.	.	.	.	2e	.
*Xcol	*	*	*	*	*	*	*
.	.	.	.	.	.	2c	-cto
=182	=182	=182	=182	=182	=182	=182	=182
*	*	*col	*	*	*	*	*
1BB	Spi-	1G	Cum	1.r	.	2.d	Spi-
.	.	.	.	.	.	4c	.
2BB	-ri-	[2G	San-	.	.	2d	.
=183	=183	=183	=183	=183	=183	=183	=183
1C	-tu,	2G]	.	1.r	.	2e	-ri-
.	.	1A	-cto	.	.	2c	-tu,
*	*	*Xcol	*	*	*	*	*
2AA	.	.	.	.	.	2r	.
=184	=184	=184	=184	=184	=184	=184	=184
1GG	.	1B	Spi-	2r	.	1.r	.
.	.	.	.	2r	.	.	.
*	*	*	*	*	*Xedit	*	*
2GG	in	2B	-ri-	2d	in	.	.
=185	=185	=185	=185	=185	=185	=185	=185
1C	glo-	1c	-tu,	1e	glo-	1.r	.
2D	-ri-	2A	.	2f	.	.	.
=186	=186	=186	=186	=186	=186	=186	=186
*lig	*	*	*	*	*	*	*
2E	-a,	1G	.	2.g	-ri-	2r	.
2C	.	.	.	.	.	2r	.
.	.	.	.	4f	.	.	.
*Xlig	*	*	*	*	*	*	*
*	*	*	*	*	*	*	*Xedit
2r	.	2r	.	2d	.	2d	in
!!LO:LB:g=original
=187	=187	=187	=187	=187	=187	=187	=187
1.r	.	1.r	.	1c	-a	1e	glo-
.	.	.	.	2r	.	2f	.
=188	=188	=188	=188	=188	=188	=188	=188
*	*edit	*	*	*	*	*	*
1GG	in	1.r	.	1.r	.	2.g	-ri-
.	.	.	.	.	.	4f	.
2BB	.	.	.	.	.	2d	.
=189	=189	=189	=189	=189	=189	=189	=189
1C	glo-	1G	in	1.r	.	1c	-a
2D	-ri-	2B	.	.	.	2r	.
=190	=190	=190	=190	=190	=190	=190	=190
1E	-a	1c	glo-	1.r	.	1.r	.
2D	.	2d	-ri-	.	.	.	.
=191	=191	=191	=191	=191	=191	=191	=191
2C	.	2e	-a	1.r	.	1.r	.
*	*Xedit	*	*	*	*	*	*
2.G	De-	2.d	De-	.	.	.	.
4F	.	4c	-i	.	.	.	.
=192	=192	=192	=192	=192	=192	=192	=192
*lig	*	*	*	*	*	*	*
2E	-i	1c	Pa-	1.r	.	1.r	.
*	*edit	*	*	*	*	*	*
1D	Pa-	.	.	.	.	.	.
.	.	2B	.	.	.	.	.
!!LO:LB:g=original
=193	=193	=193	=193	=193	=193	=193	=193
1C	-tris,	1c	-tris.	1.r	.	1cc	De-
*Xlig	*	*	*	*	*	*	*
2r	.	2r	.	.	.	2a	.
=194	=194	=194	=194	=194	=194	=194	=194
1.r	.	1.r	.	1c	De-	1g	.
.	.	.	.	2A	.	2a	.
=195	=195	=195	=195	=195	=195	=195	=195
1.r	.	1.r	.	1G	.	1b	.
.	.	.	.	2A	.	2a	-i
=196	=196	=196	=196	=196	=196	=196	=196
1.r	.	1.r	.	1B	.	1dd	Pa-
.	.	.	.	2A	-i	2cc	.
=197	=197	=197	=197	=197	=197	=197	=197
*	*	*	*	*	*	*lig	*
1.r	.	1.r	.	1d	Pa-	2a	.
.	.	.	.	.	.	1b	.
.	.	.	.	2c	.	.	.
=198	=198	=198	=198	=198	=198	=198	=198
1.r	.	1.r	.	2A	.	1a	.
.	.	.	.	1B	.	.	.
*	*	*	*	*	*	*Xlig	*
.	.	.	.	.	.	2g#i	.
!!LO:LB:g=original
=199	=199	=199	=199	=199	=199	=199	=199
*	*Xedit	*	*	*	*	*	*
1AA	Pa-	1.r	.	1A	-tris,	1a	-tris.
2C	.	.	.	2r	.	2r	.
=200	=200	=200	=200	=200	=200	=200	=200
*	*	*	*edit	*	*	*	*
1D	.	2.A	A-	1.r	.	1.r	.
.	.	4G	.	.	.	.	.
2C	.	2E	.	.	.	.	.
=201	=201	=201	=201	=201	=201	=201	=201
1D	-tris.	2.F	.	1.r	.	2.a	A-
.	.	4G	.	.	.	4g	.
2r	.	2A	.	.	.	2e	.
=202	=202	=202	=202	=202	=202	=202	=202
1.r	.	2.D	.	1.r	.	2.f	.
.	.	4E	.	.	.	4g	.
.	.	2F	.	.	.	2a	.
=203	=203	=203	=203	=203	=203	=203	=203
1.r	.	1G	-men,	1.r	.	2.d	.
.	.	.	.	.	.	4e	.
.	.	2r	.	.	.	2f	.
=204	=204	=204	=204	=204	=204	=204	=204
*	*	*	*	*	*	*	*edit
1GG	A-	1.r	.	1.r	.	1g	-men,
2BB	.	.	.	.	.	2r	.
!!LO:PB:g=original
=205	=205	=205	=205	=205	=205	=205	=205
1C	.	1.r	.	2.G	A-	1.r	.
.	.	.	.	4A	.	.	.
2D	.	.	.	2B	.	.	.
=206	=206	=206	=206	=206	=206	=206	=206
2E	.	1.r	.	2.c	.	1.r	.
2F	.	.	.	.	.	.	.
.	.	.	.	4d	.	.	.
2C	.	.	.	2e	.	.	.
=207	=207	=207	=207	=207	=207	=207	=207
2D	.	1.r	.	1d	.	1.r	.
*	*edit	*	*	*	*	*	*
1E	-men,	.	.	.	.	.	.
.	.	.	.	2c#i	.	.	.
=208	=208	=208	=208	=208	=208	=208	=208
*	*	*	*Xedit	*	*	*	*
1.r	.	2.D	a-	2.d	.	1.r	.
.	.	4E	.	4c	.	.	.
.	.	2F	.	2A	.	.	.
=209	=209	=209	=209	=209	=209	=209	=209
*	*	*lig	*	*	*	*	*
*	*	*	*	*	*edit	*	*
1.r	.	2G	.	1G	-men,	2.d	a-
.	.	2B	.	.	.	.	.
.	.	.	.	.	.	4e	.
*	*	*Xlig	*	*	*	*	*
.	.	2A	.	2r	.	2f	.
=210	=210	=210	=210	=210	=210	=210	=210
*	*	*	*	*	*	*lig	*
1GG	a-	1G	.	1.d	a-	2g	.
.	.	.	.	.	.	2b	.
*	*	*	*	*	*	*Xlig	*
2D	.	2F	.	.	.	2a	.
!!LO:LB:g=original
=211	=211	=211	=211	=211	=211	=211	=211
*	*	*lig	*	*lig	*	*	*
2E	.	2G	.	2c	.	1g	.
1D	.	1A	.	1d	.	.	.
.	.	.	.	.	.	2f#i	.
=212	=212	=212	=212	=212	=212	=212	=212
*	*	*	*edit	*	*	*	*
1GG	-men,	1G	-men,	1B	.	1g	-men,
*	*	*Xlig	*	*Xlig	*	*	*
[2r	.	2r	.	2G	.	2b	a-
=213	=213	=213	=213	=213	=213	=213	=213
*	*	*	*	*lig	*	*	*
1.ryy	.	1G	a-	2B	-men,	2.dd	.
.	.	.	.	2d	.	.	.
.	.	.	.	.	.	4cc	.
*	*	*	*	*Xlig	*	*	*
.	.	2B	.	2g	.	4b	.
.	.	.	.	.	.	4a	.
=214	=214	=214	=214	=214	=214	=214	=214
2G	a-	2d	.	2g	a-	2b	.
2A	.	1c	.	2e	.	2.a	.
2F	.	.	.	2f	.	.	.
.	.	.	.	.	.	4g	.
=215	=215	=215	=215	=215	=215	=215	=215
2G	.	2B	.	1.d	.	1g	.
*lig	*	*	*	*	*	*	*
1D	.	1A	.	.	.	.	.
.	.	.	.	.	.	2f#i	.
*	*Xedit	*	*Xedit	*	*Xedit	*	*Xedit
=216	=216	=216	=216	=216	=216	=216	=216
0GGl	-men.	0Gl	-men.	0dl	-men.	0gl	-men.
*Xlig	*	*	*	*	*	*	*
==	==	==	==	==	==	==	==
*-	*-	*-	*-	*-	*-	*-	*-
!!!system-decoration: [*]
!!!RDF**kern: j = editorial accidental, optional, paren up
!!!RDF**kern: i = editorial accidental
!!!RDF**kern: l = terminal long
!!!PTL: Gaspar van Weerbeke: Collected Works. II. Masses, Part 2
!!!PPR: American Institute of Musicology
!!!PC#: Corpus Mensurabilis Musicae 106/II.2
!!!PDT: 2018
!!!PED: Kolb, Paul
!!!YEC: Copyright 2016, Kolb, Paul
!!!YEM: CC-BY-NC 4.0 (https://creativecommons.org/licenses/by-nc/4.0/legalcode)
!!!EED: Zybina, Karina
!!!EEV: 2021/11/12
!!!title: @{OPR} &mdash; @{OTL}
